packages/icons/svg/Fill/rewind-left.svg

<svg fill="none" height="24" viewBox="0 0 24 24" width="24" xmlns="http://www.w3.org/2000/svg"><path clip-rule="evenodd" d="m18.4502 6.20121c-.734-.345-1.601-.243-2.209.26l-4.741 3.91599v-2.58999c0-.673-.403-1.28-1.05-1.586-.73401-.345-1.60101-.243-2.20901.26l-5.1 4.21299c-.407.336-.641.82-.641 1.326s.234.99.641 1.326l5.1 4.214c.368.304.832.461 1.303.461.307 0 .61701-.067.90601-.202.647-.306 1.05-.913 1.05-1.586v-2.591l4.741 3.918c.368.304.832.461 1.303.461.307 0 .617-.067.906-.202.647-.306 1.05-.913 1.05-1.586v-8.42599c0-.673-.403-1.28-1.05-1.586" fill="#6b7280" fill-rule="evenodd"/></svg>

<svg width="24" height="24" viewBox="0 0 24 24" fill="none" xmlns="http://www.w3.org/2000/svg">
<g id="Icon/Fill/rewind-left">
<path id="Mask" fill-rule="evenodd" clip-rule="evenodd" d="M18.4502 6.20121C17.7162 5.85621 16.8492 5.95821 16.2412 6.46121L11.5002 10.3772V7.78721C11.5002 7.11421 11.0972 6.50721 10.4502 6.20121C9.71624 5.85621 8.84924 5.95821 8.24124 6.46121L3.14124 10.6742C2.73424 11.0102 2.50024 11.4942 2.50024 12.0002C2.50024 12.5062 2.73424 12.9902 3.14124 13.3262L8.24124 17.5402C8.60924 17.8442 9.07324 18.0012 9.54424 18.0012C9.85124 18.0012 10.1612 17.9342 10.4502 17.7992C11.0972 17.4932 11.5002 16.8862 11.5002 16.2132V13.6222L16.2412 17.5402C16.6092 17.8442 17.0732 18.0012 17.5442 18.0012C17.8512 18.0012 18.1612 17.9342 18.4502 17.7992C19.0972 17.4932 19.5002 16.8862 19.5002 16.2132V7.78721C19.5002 7.11421 19.0972 6.50721 18.4502 6.20121Z" fill="#000000"/>
</g>
</svg>
